icons/file-directory-symlink-24.svg

<svg width="24" height="24" viewBox="0 0 24 24" fill="none" xmlns="http://www.w3.org/2000/svg">
<path d="M2 4.75C2 3.7835 2.7835 3 3.75 3H8.72108C9.30015 3 9.84173 3.28645 10.1676 3.76512L11.5723 5.8282C11.6188 5.89658 11.6962 5.9375 11.7789 5.9375H20.25C21.2165 5.9375 22 6.721 22 7.6875V19.25C22 20.2165 21.2165 21 20.25 21H4.75C4.33579 21 4 20.6642 4 20.25C4 19.8358 4.33579 19.5 4.75 19.5H20.25C20.3881 19.5 20.5 19.3881 20.5 19.25V7.6875C20.5 7.54943 20.3881 7.4375 20.25 7.4375H11.7789C11.1999 7.4375 10.6583 7.15105 10.3324 6.67238L8.92772 4.6093C8.88117 4.54092 8.8038 4.5 8.72108 4.5H3.75C3.61193 4.5 3.5 4.61193 3.5 4.75V8.25C3.5 8.66421 3.16421 9 2.75 9C2.33579 9 2 8.66421 2 8.25V4.75Z" fill="black"/>
<path d="M9.3083 12.5L7.20385 10.264C6.91996 9.96239 6.93435 9.48774 7.23598 9.20385C7.53761 8.91996 8.01227 8.93435 8.29615 9.23598L11.5903 12.736C11.8621 13.0248 11.8621 13.4752 11.5903 13.764L8.29615 17.264C8.01227 17.5657 7.53761 17.58 7.23598 17.2962C6.93435 17.0123 6.91996 16.5376 7.20385 16.236L9.3083 14H4.09043C2.65962 14 1.5 15.1594 1.5 16.5899V19.75C1.5 20.1642 1.16421 20.5 0.75 20.5C0.335787 20.5 0 20.1642 0 19.75V16.5899C0 14.3307 1.8315 12.5 4.09043 12.5H9.3083Z" fill="black"/>
</svg>

<svg xmlns="http://www.w3.org/2000/svg" width="24" height="24" viewBox="0 0 24 24"><path d="M2 4.75C2 3.784 2.784 3 3.75 3h4.971a1.75 1.75 0 0 1 1.447.765l1.404 2.063a.25.25 0 0 0 .207.11h8.471c.966 0 1.75.783 1.75 1.75V19.25A1.75 1.75 0 0 1 20.25 21H4.75a.75.75 0 0 1 0-1.5h15.5a.25.25 0 0 0 .25-.25V7.688a.25.25 0 0 0-.25-.25h-8.471a1.751 1.751 0 0 1-1.447-.766L8.928 4.609a.252.252 0 0 0-.207-.109H3.75a.25.25 0 0 0-.25.25v3.5a.75.75 0 0 1-1.5 0v-3.5Z"/><path d="m9.308 12.5-2.104-2.236a.75.75 0 1 1 1.092-1.028l3.294 3.5a.75.75 0 0 1 0 1.028l-3.294 3.5a.75.75 0 1 1-1.092-1.028L9.308 14H4.09a2.59 2.59 0 0 0-2.59 2.59v3.16a.75.75 0 0 1-1.5 0v-3.16a4.09 4.09 0 0 1 4.09-4.09h5.218Z"/></svg>
